source/img/vector/traktor-5-vector.svg

<svg width="280" height="165" viewBox="0 0 280 165" fill="none" xmlns="http://www.w3.org/2000/svg">
<circle cx="76.7509" cy="133.324" r="8.50107" fill="#A0A1A2"/>
<path fill-rule="evenodd" clip-rule="evenodd" d="M76.4949 153.158C87.3076 153.158 96.0731 144.392 96.0731 133.58C96.0731 122.767 87.3076 114.002 76.4949 114.002C65.6821 114.002 56.9167 122.767 56.9167 133.58C56.9167 144.392 65.6821 153.158 76.4949 153.158ZM76.4949 164.493C93.5676 164.493 107.408 150.652 107.408 133.58C107.408 116.507 93.5676 102.667 76.4949 102.667C59.4221 102.667 45.5819 116.507 45.5819 133.58C45.5819 150.652 59.4221 164.493 76.4949 164.493Z" fill="#A0A1A2"/>
<circle cx="239.899" cy="132.639" r="8.68744" fill="#A0A1A2"/>
<path fill-rule="evenodd" clip-rule="evenodd" d="M239.638 152.909C250.687 152.909 259.645 143.951 259.645 132.901C259.645 121.851 250.687 112.894 239.638 112.894C228.588 112.894 219.63 121.851 219.63 132.901C219.63 143.951 228.588 152.909 239.638 152.909ZM239.638 164.492C257.085 164.492 271.228 150.348 271.228 132.901C271.228 115.454 257.085 101.311 239.638 101.311C222.191 101.311 208.047 115.454 208.047 132.901C208.047 150.348 222.191 164.492 239.638 164.492Z" fill="#A0A1A2"/>
<path d="M41.6316 113.998V122.07H45.9251V114.685L59.4925 100.43H94.1837L106.892 113.139V120.696H111.529V111.594L94.1837 95.2783H57.4316L41.6316 113.998Z" fill="#A0A1A2"/>
<rect x="138.32" y="120.525" width="2.74782" height="29.5391" fill="#A0A1A2"/>
<rect x="151.716" y="120.525" width="2.74782" height="29.5391" fill="#A0A1A2"/>
<rect x="138.32" y="147.662" width="16.1434" height="2.40434" fill="#A0A1A2"/>
<rect x="190.186" y="73.123" width="7.55651" height="27.8217" fill="#A0A1A2"/>
<path fill-rule="evenodd" clip-rule="evenodd" d="M5.22275 121.902L0.414062 64.7126L30.4683 55.7822H111.014L107.407 7.52357H133.34V0.310547H141.755V7.52357H197.57L188.64 59.3887V107.476H200.318L219.724 88.4125H260.942L279.318 110.739V115.811H272.792V110.739L260.942 95.969H222.987L209.077 110.739L203.409 124.134L197.57 126.71H182.629L169.062 139.934H156.353H126.127L123.036 126.71L114.964 120.528V110.739L96.0725 91.8473H55.1987L37.6814 114.002V121.902H5.22275ZM9.86008 67.2855H2.13184L11.4057 65.2246L19.3057 113.998L9.86008 67.2855ZM20.3365 94.4249L23.256 112.629H31.6712L50.5625 89.6162L20.3365 94.4249ZM143.816 11.3027H165.455V55.9548H143.816V11.3027ZM133.169 11.3027H111.873L115.308 55.9548H133.169V11.3027ZM169.577 55.7832V11.6464H192.075L182.973 55.7832H169.577ZM170.608 93.3965H148.625V106.792H170.608V93.3965ZM148.625 77.2485H158.242V90.6441H148.625V77.2485ZM83.3645 59.7326L94.6992 86.8673H99.6796L87.3145 59.7326H83.3645ZM141.069 129.111H151.717V137.355H141.069V129.111ZM151.717 118.811H141.069V127.054H151.717V118.811ZM123.036 90.9897L113.419 65.0572H117.541L127.673 90.9897H123.036ZM31.8422 58.014H29.0944V70.0357H31.8422V70.0349H76.4949V70.0357H79.2427V58.014H76.4949V67.2871H31.8422V58.014Z" fill="#A0A1A2"/>
</svg>

<svg width="280" height="165" fill="none" xmlns="http://www.w3.org/2000/svg"><circle cx="76.751" cy="133.324" r="8.501" fill="#A0A1A2"/><path fill-rule="evenodd" clip-rule="evenodd" d="M76.495 153.158c10.813 0 19.578-8.766 19.578-19.578 0-10.813-8.765-19.578-19.578-19.578-10.813 0-19.578 8.765-19.578 19.578 0 10.812 8.765 19.578 19.578 19.578zm0 11.335c17.073 0 30.913-13.841 30.913-30.913 0-17.073-13.84-30.913-30.913-30.913s-30.913 13.84-30.913 30.913c0 17.072 13.84 30.913 30.913 30.913z" fill="#A0A1A2"/><circle cx="239.899" cy="132.639" r="8.687" fill="#A0A1A2"/><path fill-rule="evenodd" clip-rule="evenodd" d="M239.638 152.909c11.049 0 20.007-8.958 20.007-20.008 0-11.05-8.958-20.007-20.007-20.007-11.05 0-20.008 8.957-20.008 20.007s8.958 20.008 20.008 20.008zm0 11.583c17.447 0 31.59-14.144 31.59-31.591 0-17.447-14.143-31.59-31.59-31.59s-31.591 14.143-31.591 31.59 14.144 31.591 31.591 31.591z" fill="#A0A1A2"/><path d="M41.632 113.998v8.072h4.293v-7.385l13.568-14.255h34.69l12.709 12.709v7.557h4.637v-9.102L94.184 95.278H57.432l-15.8 18.72zm96.688 6.527h2.748v29.539h-2.748zm13.396 0h2.748v29.539h-2.748z" fill="#A0A1A2"/><path fill="#A0A1A2" d="M138.32 147.662h16.143v2.404H138.32zm51.866-74.539h7.557v27.822h-7.557z"/><path fill-rule="evenodd" clip-rule="evenodd" d="M5.223 121.902L.414 64.712l30.054-8.93h80.546l-3.607-48.258h25.933V.31h8.415v7.213h55.815l-8.93 51.865v48.087h11.678l19.406-19.064h41.218l18.376 22.327v5.072h-6.526v-5.072l-11.85-14.77h-37.955l-13.91 14.77-5.668 13.395-5.839 2.576h-14.941l-13.567 13.224h-42.935l-3.091-13.224-8.072-6.182v-9.789L96.073 91.847H55.199L37.68 114.002v7.9H5.223zM9.86 67.285H2.132l9.274-2.06 7.9 48.773L9.86 67.285zm10.477 27.14l2.919 18.204h8.415l18.892-23.013-30.227 4.809zm123.479-83.122h21.639v44.652h-21.639V11.303zm-10.647 0h-21.296l3.435 44.652h17.861V11.303zm36.408 44.48V11.646h22.498l-9.102 44.137h-13.396zm1.031 37.614h-21.983v13.395h21.983V93.397zm-21.983-16.148h9.617v13.395h-9.617V77.25zm-65.26-17.516l11.334 27.134h4.98L87.315 59.733h-3.95zm57.704 69.378h10.648v8.244h-10.648v-8.244zm10.648-10.3h-10.648v8.243h10.648v-8.243zM123.036 90.99l-9.617-25.933h4.122l10.132 25.933h-4.637zM31.842 58.014h-2.748v12.022h2.748v-.001h47.401v-12.02h-2.748v9.273H31.842v-9.273z" fill="#A0A1A2"/></svg>
